X:1014
T:Arran Boat
R:Waltz
C:Trad.
O:Scotland
Z:Paul Hardy's Session Tunebook 2015 (see www.paulhardy.net). Creative Commons cc by-nc-sa licenced.
M:3/4
L:1/8
Q:1/4=90
K:Edor
"Em"E3 F E2|B3 c d2|"D"A3 F D2|A3 F D2|"Em"E3 F E2|B3 c d2|"D"F3 E D2|"Em"E6:|
"Em"e3 f e2|g3 f e2|"G"d3 B G2|"D"A3 F D2|"Em"e3 f e2|g3 f e2|"G"d B3 d2|"C"e6|
"Em"e3 f e2|g3 f e2|"G"d3 B G2|"D"A3 F D2|"Em"E3 F E2|B3 c d2|"D"F3 E D2|"Em"E6|]

